pix_core/i/mnethost.svg

<svg preserveAspectRatio="xMinYMid meet" viewBox="0 0 448 512" xmlns="http://www.w3.org/2000/svg"><path d="m384 32c35.3 0 64 28.7 64 64v320c0 35.3-28.7 64-64 64h-320c-35.3 0-64-28.7-64-64v-320c0-35.3 28.7-64 64-64zm-224 112c-13.3 0-24 10.7-24 24s10.7 24 24 24h94.1l-135.1 135c-9.4 9.4-9.4 24.6 0 33.9s24.6 9.4 33.9 0l135-135v102.1c0 13.3 10.7 24 24 24s24-10.7 24-24v-160c0-13.3-10.7-24-24-24z" fill="#fff"/></svg>

<svg xmlns="http://www.w3.org/2000/svg" viewBox="0 0 448 512" preserveAspectRatio="xMinYMid meet"><!--!Font Awesome Free 6.5.2 by @fontawesome - https://fontawesome.com License - https://fontawesome.com/license/free Copyright 2024 Fonticons, Inc.--><path fill="#fff" d="M384 32c35.3 0 64 28.7 64 64V416c0 35.3-28.7 64-64 64H64c-35.3 0-64-28.7-64-64V96C0 60.7 28.7 32 64 32H384zM160 144c-13.3 0-24 10.7-24 24s10.7 24 24 24h94.1L119 327c-9.4 9.4-9.4 24.6 0 33.9s24.6 9.4 33.9 0l135-135V328c0 13.3 10.7 24 24 24s24-10.7 24-24V168c0-13.3-10.7-24-24-24H160z"/></svg>
